X:1
T:Title
%%score ( 1 2 ) { ( 3 5 ) | 4 }
L:1/8
M:4/4
K:C
V:1 treble nm="Bright Piano"
V:2 treble 
V:3 treble nm="Bright Piano"
V:5 treble 
V:4 bass 
V:1
 z4 z2[Q:1/4=100] [CE]>[DF] | [EG]2 [EG]2 [EG]2 [DF]2 | [CE]C[CE][EG] [Ec]2 [EG]2 | %3
 [FA]2 [CG]2 [DF]2 [CE]2 | [B,D]6 [CE]>[DF] | [EG]2 [EG]2 [EG]2 [DF]2 | [CE]C[CE][EG] [Ec]2 [Ec]2 | %7
 [DB]2 [DG]2 [D^F]2 [DA]2 | [DG]6 [CE]>[EG] | [Ec]2 [Fc]2 [Ec]2 [GB]2 | A^GAc [E=G]2 [CE]2 | %11
 [DF]2 [CE]2 [B,D]2 z E | [B,G]6 [CE]>[EG] | [Ec]2 [Fc]2 [Ec]2 [GB]2 | A^GAc [E=G]2 [CE]2 | %15
 [CD]2 [CA]2 [B,G]2 [FB]2 |[M:11/16] [Ec]/-[Ec]/-[Ec]/-[Ec]/-[Ec]/-[Ec]/-[Ec]/-[Ec]-<[Ec] | %17
[M:5/16] C<[CE][CG]/ |[M:4/4] c6 z2 | G6 z2 | [DF]4- [DF]>[FA] [EG]>[DF] | %21
 E2- [B,E-]2 [CE]>C [CE]>[DG] | c2- [Fc-]2 [Gc]>[Gd] [Ec]>[C^G] | A2- [GA-]2 [FA]>[Fc] [GB]>[FA] | %24
 G2 [Ec]2 [Dc]2 B-[FB] |[M:3/4] [Ec]6 |] %26
V:2
 x8 | x8 | x8 | x8 | x8 | x8 | x8 | x8 | x8 | x8 | F2 F2 z4 | z4 z2 C2 | x8 | x8 | F2 F2 z4 | x8 | %16
[M:11/16] x11/2 |[M:5/16] x5/2 |[M:4/4] E2 F2 G>[Gd] [Ac]>[FA] | D2 F2 E>[EG] [EA]>[EG] | x8 | %21
 D2 z2 z4 | E2 z2 z4 | C2 z2 z4 | z4 z2 .D2 |[M:3/4] x6 |] %26
V:3
 z4 z2 G,2 | C2 C2 C2 G,2 | G,E, G,2 G,2 C2 | C2 G,2 G,2 G,2 | G,6 G,2 | C2 C2 C2 G,2 | %6
 G,[K:bass]E, G,2 G,2 G,2 | G,2 B,2 A,2 C2 | B,6 G,2 | G,2 A,2 G,2[K:treble] C2 | %10
 C2 CA, C2[K:bass] G,2 | G,2 G,2 z F, G,2 | G,6 G,2 | G,2 A,2 G,2[K:treble] C2 | %14
 C2 CA, C2[K:bass] G,2 | A,2 F,2 D,2 G,2 |[M:11/16] G,/-G,/-G,/-G,/-G,/-G,/-G,/-G,-<G, | %17
[M:5/16] C<G,G,/ |[M:4/4] G,4- G,>G, C>C | B,2 G,2 G,>G, E,>A, | A,4 z4 | G,4- G,>G, G,>G, | %22
 G,4- G,>G, _B,>B, | A,2[K:treble] ^C2 D>A, G,>=C | C2 G,2 A,2 G,2 |[M:3/4] G,6 |] %26
V:4
 z4 z2 C,2 | C,2 C,2 C,2 B,,2 | C,2 C,2 C,2 C,2 | F,2 E,2 B,,2 C,2 | G,,6 C,2 | C,2 C,2 C,2 B,,2 | %6
 C,2 C,2 C,2 C,2 | D,2 D,2 D,2 D,2 | G,,6 C,2 | C,2 C,2 C,2 E,2 | F,2 F,2 C,2 C,2 | %11
 B,,2 C,2 z2 E,C, | G,,6 C,2 | C,2 C,2 C,2 E,2 | F,2 F,2 C,2 C,2 | F,,2 F,,2 G,,2 G,,2 | %16
[M:11/16] C,/-C,/-C,/-C,/-C,/-C,/-C,/-C,-<C, |[M:5/16] z/ z/ z E,/ |[M:4/4] C,2 D,2 E,>E, F,>F, | %19
 F,2 D,2 C,>C, ^C,>C, | D,2 z2 B,,>G,, A,,>B,, | C,2 D,2 E,>E, C,>B,, | C,2 D,2 E,>E, C,>E, | %23
 F,2 E,2 D,>D, E,>F, | E,2 C,2 F,,2 G,,2 |[M:3/4] C,6 |] %26
V:5
 x8 | x8 | x8 | x8 | x8 | x8 | x[K:bass] x7 | x8 | x8 | x6[K:treble] x2 | x6[K:bass] x2 | %11
 z4 G,2 z2 | x8 | x6[K:treble] x2 | x6[K:bass] x2 | x8 |[M:11/16] x11/2 |[M:5/16] x5/2 | %18
[M:4/4] x8 | x8 | z2 C,2 G,>B, C>G, | x8 | x8 | x2[K:treble] x6 | x8 |[M:3/4] x6 |] %26

